pictures/icons/web-design/045-diamond.svg

<svg viewBox="0 0 512 512" xmlns="http://www.w3.org/2000/svg"><path d="m165.875 121.003906c-5.121094.042969-9.695312 2.683594-12.355469 6.675782l-59.9375 89.90625c-2.636719 3.890624-3.285156 8.785156-1.796875 13.207031 0 0 .003906.003906.003906.003906.507813 1.226563 1.019532 2.835937 2.761719 4.894531l149.925781 179.910156c.023438.03125.050782.050782.074219.078126 2.945313 3.484374 7.253907 5.320312 11.449219 5.320312 4.179688 0 8.480469-1.808594 11.449219-5.320312.023437-.027344.050781-.050782.074219-.078126l149.925781-179.910156c1.949219-2.300781 2.53125-4.378906 2.765625-4.894531 0 0 0 0 0-.003906 1.5-4.445313.828125-9.335938-1.796875-13.207031l-59.9375-89.90625c-2.800781-4.203126-7.503907-6.632813-12.347657-6.675782-.046874 0-.089843-.003906-.132812-.003906h-180c-.042969 0-.082031.003906-.125.003906zm90.125 237.5625-39.1875-117.566406h78.375zm94.53125-188.726562 27.441406 41.160156h-41.160156zm23.445312 71.160156-78.605468 94.324219 31.441406-94.324219zm-48.789062-90-13.71875 41.160156-27.441406-41.160156zm-37.214844 60h-63.945312l31.972656-47.957031zm-60-60-27.441406 41.160156-13.71875-41.160156zm-11.34375 184.324219-78.605468-94.324219h47.164062zm-82.601562-124.324219 27.441406-41.160156 13.71875 41.160156zm0 0"/><path d="m15 241c-8.285156 0-15 6.714844-15 15s6.714844 15 15 15h31c8.285156 0 15-6.714844 15-15s-6.714844-15-15-15zm0 0"/><path d="m497 241h-31c-8.285156 0-15 6.714844-15 15s6.714844 15 15 15h31c8.285156 0 15-6.714844 15-15s-6.714844-15-15-15zm0 0"/><path d="m96.902344 373.878906-21.214844 21.210938c-5.859375 5.859375-5.859375 15.355468 0 21.214844 5.855469 5.855468 15.351562 5.855468 21.210938 0l21.214843-21.214844c5.859375-5.859375 5.859375-15.355469 0-21.210938-5.855469-5.859375-15.351562-5.859375-21.210937 0zm0 0"/><path d="m451.3125 70.679688c-5.855469-5.855469-15.351562-5.859376-21.210938 0l-21.214843 21.214843c-5.859375 5.855469-5.859375 15.351563 0 21.210938 5.855469 5.859375 15.351562 5.859375 21.210937 0l21.214844-21.210938c5.859375-5.859375 5.859375-15.355469 0-21.214843zm0 0"/><path d="m393.886719 373.878906c-5.859375 5.855469-5.859375 15.355469 0 21.210938l21.214843 21.214844c5.855469 5.855468 15.351563 5.855468 21.210938 0 5.859375-5.859376 5.859375-15.355469 0-21.214844l-21.214844-21.210938c-5.855468-5.859375-15.355468-5.859375-21.210937 0zm0 0"/><path d="m81.898438 70.679688c-5.855469-5.855469-15.351563-5.855469-21.210938 0-5.859375 5.859374-5.859375 15.355468 0 21.214843l21.214844 21.210938c5.855468 5.859375 15.355468 5.859375 21.210937 0 5.859375-5.859375 5.859375-15.355469 0-21.210938zm0 0"/><path d="m256 451c-8.285156 0-15 6.714844-15 15v31c0 8.285156 6.714844 15 15 15s15-6.714844 15-15v-31c0-8.285156-6.714844-15-15-15zm0 0"/><path d="m271 46v-31c0-8.285156-6.714844-15-15-15s-15 6.714844-15 15v31c0 8.285156 6.714844 15 15 15s15-6.714844 15-15zm0 0"/></svg>

<?xml version="1.0" encoding="UTF-8"?>
<svg viewBox="0 0 512 512" version="1.1" xmlns="http://www.w3.org/2000/svg" xmlns:xlink="http://www.w3.org/1999/xlink">
    <!-- Generator: Sketch 49.1 (51147) - http://www.bohemiancoding.com/sketch -->
    <title>045-diamond</title>
    <desc>Created with Sketch.</desc>
    <defs></defs>
    <g id="Page-1" stroke="none" stroke-width="1" fill="none" fill-rule="evenodd">
        <g id="045-diamond" fill="#000000" fill-rule="nonzero">
            <path d="M165.875,121.003906 C160.753906,121.046875 156.179688,123.6875 153.519531,127.679688 L93.582031,217.585938 C90.945312,221.476562 90.296875,226.371094 91.785156,230.792969 C91.785156,230.792969 91.789062,230.796875 91.789062,230.796875 C92.296875,232.023438 92.808594,233.632812 94.550781,235.691406 L244.476562,415.601562 C244.5,415.632812 244.527344,415.652344 244.550781,415.679688 C247.496094,419.164062 251.804688,421 256,421 C260.179688,421 264.480469,419.191406 267.449219,415.679688 C267.472656,415.652344 267.5,415.628906 267.523438,415.601562 L417.449219,235.691406 C419.398438,233.390625 419.980469,231.3125 420.214844,230.796875 C420.214844,230.796875 420.214844,230.796875 420.214844,230.792969 C421.714844,226.347656 421.042969,221.457031 418.417969,217.585938 L358.480469,127.679688 C355.679688,123.476562 350.976562,121.046875 346.132812,121.003906 C346.085938,121.003906 346.042969,121 346,121 L166,121 C165.957031,121 165.917969,121.003906 165.875,121.003906 Z M256,358.566406 L216.8125,241 L295.1875,241 L256,358.566406 Z M350.53125,169.839844 L377.972656,211 L336.8125,211 L350.53125,169.839844 Z M373.976562,241 L295.371094,335.324219 L326.8125,241 L373.976562,241 Z M325.1875,151 L311.46875,192.160156 L284.027344,151 L325.1875,151 Z M287.972656,211 L224.027344,211 L256,163.042969 L287.972656,211 Z M227.972656,151 L200.53125,192.160156 L186.8125,151 L227.972656,151 Z M216.628906,335.324219 L138.023438,241 L185.1875,241 L216.628906,335.324219 Z M134.027344,211 L161.46875,169.839844 L175.1875,211 L134.027344,211 Z" id="Shape"></path>
            <path d="M15,241 C6.714844,241 0,247.714844 0,256 C0,264.285156 6.714844,271 15,271 L46,271 C54.285156,271 61,264.285156 61,256 C61,247.714844 54.285156,241 46,241 L15,241 Z" id="Shape"></path>
            <path d="M497,241 L466,241 C457.714844,241 451,247.714844 451,256 C451,264.285156 457.714844,271 466,271 L497,271 C505.285156,271 512,264.285156 512,256 C512,247.714844 505.285156,241 497,241 Z" id="Shape"></path>
            <path d="M96.902344,373.878906 L75.6875,395.089844 C69.828125,400.949219 69.828125,410.445312 75.6875,416.304688 C81.542969,422.160156 91.039062,422.160156 96.898438,416.304688 L118.113281,395.089844 C123.972656,389.230469 123.972656,379.734375 118.113281,373.878906 C112.257812,368.019531 102.761719,368.019531 96.902344,373.878906 Z" id="Shape"></path>
            <path d="M451.3125,70.679688 C445.457031,64.824219 435.960938,64.820312 430.101562,70.679688 L408.886719,91.894531 C403.027344,97.75 403.027344,107.246094 408.886719,113.105469 C414.742188,118.964844 424.238281,118.964844 430.097656,113.105469 L451.3125,91.894531 C457.171875,86.035156 457.171875,76.539062 451.3125,70.679688 Z" id="Shape"></path>
            <path d="M393.886719,373.878906 C388.027344,379.734375 388.027344,389.234375 393.886719,395.089844 L415.101562,416.304688 C420.957031,422.160156 430.453125,422.160156 436.3125,416.304688 C442.171875,410.445312 442.171875,400.949219 436.3125,395.089844 L415.097656,373.878906 C409.242188,368.019531 399.742188,368.019531 393.886719,373.878906 Z" id="Shape"></path>
            <path d="M81.898438,70.679688 C76.042969,64.824219 66.546875,64.824219 60.6875,70.679688 C54.828125,76.539062 54.828125,86.035156 60.6875,91.894531 L81.902344,113.105469 C87.757812,118.964844 97.257812,118.964844 103.113281,113.105469 C108.972656,107.246094 108.972656,97.75 103.113281,91.894531 L81.898438,70.679688 Z" id="Shape"></path>
            <path d="M256,451 C247.714844,451 241,457.714844 241,466 L241,497 C241,505.285156 247.714844,512 256,512 C264.285156,512 271,505.285156 271,497 L271,466 C271,457.714844 264.285156,451 256,451 Z" id="Shape"></path>
            <path d="M271,46 L271,15 C271,6.714844 264.285156,0 256,0 C247.714844,0 241,6.714844 241,15 L241,46 C241,54.285156 247.714844,61 256,61 C264.285156,61 271,54.285156 271,46 Z" id="Shape"></path>
        </g>
    </g>
</svg>
